X: 57
T:Up Sligo
R:Jig
Z:Added by Alf Warnock
M:6/8
L:1/8
K:Em
D|EBB BAG|Fdd AFD|EBB EBB|AGF EFD|
EBB BAG|Fdd AB^c|ded BGB|AGF E2:|
A|Bee ede|fef dBA|Bee Bee|fe^c d2A|
Bee ede|fef dBA|BdB GBd|AGF E2:|

